contributed-vectors/calcy_iv.svg

<svg xmlns="http://www.w3.org/2000/svg" width="192" height="192" fill="none"><g clip-path="url(#a)"><circle cx="97" cy="96" r="88" fill="#FF837D"/><path fill="#fff" d="M63.775 130h7.2V62.5h-7.2V130Zm64.772-67.5-20.475 58.275L87.597 62.5h-7.988l24.413 67.5h7.987l24.413-67.5h-7.875Z"/><path fill="#fff" d="M98.25 173c28.75 0 53.75-15.75 67-39l-13.75-7.75C141.25 144.75 121.25 157 98.25 157c-33.75 0-61-27-61-61s27.25-61 61-61c23 0 43 12.25 53.25 30.75L165.25 58C152 34.75 127 19 98.25 19c-42.5 0-77 34.5-77 77s34.5 77 77 77Z"/></g><defs><clipPath id="a"><path fill="#fff" d="M0 0h192v192H0z"/></clipPath></defs></svg>

<svg width="192" height="192" viewBox="0 0 192 192" fill="none" xmlns="http://www.w3.org/2000/svg">
<g clip-path="url(#clip0)">
<circle cx="97" cy="96" r="88" fill="#FF837D"/>
<path d="M63.775 130H70.975V62.5H63.775V130ZM128.547 62.5L108.072 120.775L87.5969 62.5H79.6094L104.022 130H112.009L136.422 62.5H128.547Z" fill="white"/>
<path d="M98.25 173C127 173 152 157.25 165.25 134L151.5 126.25C141.25 144.75 121.25 157 98.25 157C64.5 157 37.25 130 37.25 96C37.25 62 64.5 35 98.25 35C121.25 35 141.25 47.25 151.5 65.75L165.25 58C152 34.75 127 19 98.25 19C55.75 19 21.25 53.5 21.25 96C21.25 138.5 55.75 173 98.25 173Z" fill="white"/>
</g>
<defs>
<clipPath id="clip0">
<rect width="192" height="192" fill="white"/>
</clipPath>
</defs>
</svg>
